src/icons/icons_set_03/018-agenda.svg

<svg height="50" viewBox="0 0 50 50" width="50" xmlns="http://www.w3.org/2000/svg"><path d="m33.25 11h-6.05v2.5c0 1.1045695-.8954305 2-2 2s-2-.8954305-2-2v-2.5h-5.7v2.5c0 1.1045695-.8954305 2-2 2s-2-.8954305-2-2v-2.5h-2.5c-1.1045695 0-2 .8954305-2 2v6.5h32v-6.5c0-1.1045695-.8954305-2-2-2h-1.75v2.5c0 1.1045695-.8954305 2-2 2s-2-.8954305-2-2zm0-4v-2.5c0-1.1045695.8954305-2 2-2s2 .8954305 2 2v2.5h1.75c3.3137085 0 6 2.6862915 6 6v28c0 3.3137085-2.6862915 6-6 6h-28c-3.3137085 0-6-2.6862915-6-6v-28c0-3.3137085 2.6862915-6 6-6h2.5v-2.5c0-1.1045695.8954305-2 2-2s2 .8954305 2 2v2.5h5.7v-2.5c0-1.1045695.8954305-2 2-2s2 .8954305 2 2v2.5zm-24.25 16.5v17.5c0 1.1045695.8954305 2 2 2h28c1.1045695 0 2-.8954305 2-2v-17.5z"/></svg>

<?xml version="1.0" encoding="UTF-8"?>
<svg width="50px" height="50px" viewBox="0 0 50 50" version="1.1" xmlns="http://www.w3.org/2000/svg" xmlns:xlink="http://www.w3.org/1999/xlink">
    <!-- Generator: Sketch 52.2 (67145) - http://www.bohemiancoding.com/sketch -->
    <title>018-agenda</title>
    <desc>Created with Sketch.</desc>
    <g id="018-agenda" stroke="none" stroke-width="1" fill="none" fill-rule="evenodd">
        <path d="M33.25,11 L27.2,11 L27.2,13.5 C27.2,14.6045695 26.3045695,15.5 25.2,15.5 C24.0954305,15.5 23.2,14.6045695 23.2,13.5 L23.2,11 L17.5,11 L17.5,13.5 C17.5,14.6045695 16.6045695,15.5 15.5,15.5 C14.3954305,15.5 13.5,14.6045695 13.5,13.5 L13.5,11 L11,11 C9.8954305,11 9,11.8954305 9,13 L9,19.5 L41,19.5 L41,13 C41,11.8954305 40.1045695,11 39,11 L37.25,11 L37.25,13.5 C37.25,14.6045695 36.3545695,15.5 35.25,15.5 C34.1454305,15.5 33.25,14.6045695 33.25,13.5 L33.25,11 Z M33.25,7 L33.25,4.5 C33.25,3.3954305 34.1454305,2.5 35.25,2.5 C36.3545695,2.5 37.25,3.3954305 37.25,4.5 L37.25,7 L39,7 C42.3137085,7 45,9.6862915 45,13 L45,41 C45,44.3137085 42.3137085,47 39,47 L11,47 C7.6862915,47 5,44.3137085 5,41 L5,13 C5,9.6862915 7.6862915,7 11,7 L13.5,7 L13.5,4.5 C13.5,3.3954305 14.3954305,2.5 15.5,2.5 C16.6045695,2.5 17.5,3.3954305 17.5,4.5 L17.5,7 L23.2,7 L23.2,4.5 C23.2,3.3954305 24.0954305,2.5 25.2,2.5 C26.3045695,2.5 27.2,3.3954305 27.2,4.5 L27.2,7 L33.25,7 Z M9,23.5 L9,41 C9,42.1045695 9.8954305,43 11,43 L39,43 C40.1045695,43 41,42.1045695 41,41 L41,23.5 L9,23.5 Z" id="Combined-Shape" fill="#000000" fill-rule="nonzero"></path>
    </g>
</svg>
